brandFactory_export/2.Regular/Escudo rayas _2Regular.svg

<?xml version="1.0" encoding="UTF-8"?>
<svg width="24px" height="24px" viewBox="0 0 24 24" version="1.1" xmlns="http://www.w3.org/2000/svg" xmlns:xlink="http://www.w3.org/1999/xlink">
    <title>2.Regular/Escudo rayas _2Regular</title>
    <g id="Symbols" stroke="none" stroke-width="1" fill="none" fill-rule="evenodd">
        <g id="2.Regular/Escudo-rayas-_2Regular" fill="#5CB615" fill-rule="nonzero">
            <path d="M13.0789916,21.687395 L13.0789916,12.2218487 L20.9848739,12.2218487 C20.9142857,13.189916 20.8268908,14.0739496 20.712605,14.7462185 C20.2655462,17.3378151 15.7243697,20.2655462 13.0789916,21.687395 M3.99663866,14.7462185 C3.8789916,14.0739496 3.78823529,13.189916 3.71764706,12.2218487 L11.6201681,12.2218487 L11.6201681,21.687395 C8.97815126,20.2655462 4.44369748,17.3378151 3.99663866,14.7462185 M7.95966387,3.0487395 C9.01512605,2.3394958 10.0201681,1.66722689 11.6235294,1.5092437 L11.6235294,10.7462185 L3.6302521,10.7462185 C3.5092437,8.38655462 3.48235294,5.86554622 3.47226891,4.60168067 C5.48571429,4.70588235 6.74621849,3.86218487 7.95966387,3.0487395 M21.2268908,4.60168067 C21.2201681,5.86554622 21.1932773,8.38655462 21.0722689,10.7462185 L13.0789916,10.7462185 L13.0789916,1.5092437 C14.6789916,1.66722689 15.6840336,2.34285714 16.7428571,3.0487395 C17.9529412,3.86218487 19.2033613,4.7092437 21.2268908,4.60168067 M22.6858029,3.77815126 C22.6858029,3.56302521 22.5714286,3.36470588 22.410084,3.22689076 C22.2487395,3.08907563 22.0134454,3.02857143 21.805042,3.06218487 C19.8588235,3.36806723 18.8336134,2.68571429 17.5428571,1.81848739 C16.2722689,0.964705882 14.8302521,0 12.3529412,0 L12.3428571,0 C9.86554622,0 8.42352941,0.964705882 7.14957983,1.81848739 C5.85882353,2.68571429 4.84033613,3.36806723 2.91764706,3.06554622 C2.70252101,3.01176471 2.47058824,3.05882353 2.29243697,3.19663866 C2.11764706,3.33781513 2.01344538,3.54957983 2.00999539,3.77478992 C2.00999539,4.09747899 1.98991597,11.707563 2.55798319,14.994958 C3.2907563,19.2571429 11.1394958,23.1226891 12.0336134,23.5495798 C12.0369748,23.5529412 12.0403361,23.5495798 12.0436975,23.5529412 C12.1344538,23.5966387 12.2352941,23.6201681 12.3428571,23.6201681 C12.4470588,23.6201681 12.5478992,23.5932773 12.6386555,23.5529412 C12.6420168,23.5495798 12.6487395,23.5529412 12.6521008,23.5495798 C13.5462185,23.1226891 21.405042,19.2571429 22.1378151,14.994958 C22.7058824,11.707563 22.6858029,4.10084034 22.6858029,3.77815126" id="Escudo-rayas-_2Regular"></path>
        </g>
    </g>
</svg>

<svg width="24" height="24" viewBox="0 0 24 24" xmlns="http://www.w3.org/2000/svg"><path d="M13.079 21.687v-9.465h7.906c-.07.968-.158 1.852-.272 2.524-.447 2.592-4.989 5.52-7.634 6.941m-9.082-6.94c-.118-.673-.209-1.557-.28-2.525h7.903v9.465c-2.642-1.421-7.176-4.35-7.623-6.94M7.96 3.048c1.055-.71 2.06-1.382 3.664-1.54v9.237H3.63c-.12-2.36-.148-4.88-.158-6.144 2.014.104 3.274-.74 4.488-1.553m13.267 1.553a142.684 142.684 0 01-.155 6.144H13.08V1.51c1.6.158 2.605.834 3.664 1.54 1.21.813 2.46 1.66 4.484 1.553m1.459-.824a.741.741 0 00-.276-.551.77.77 0 00-.605-.165c-1.946.306-2.971-.376-4.262-1.244C16.273.965 14.83 0 12.353 0h-.01C9.866 0 8.423.965 7.15 1.818c-1.291.868-2.31 1.55-4.232 1.248a.734.734 0 00-.626.13.759.759 0 00-.282.579c0 .322-.02 7.933.548 11.22.733 4.262 8.581 8.128 9.476 8.555.003.003.006 0 .01.003a.685.685 0 00.595 0c.003-.003.01 0 .013-.003.894-.427 8.753-4.293 9.486-8.555.568-3.287.548-10.894.548-11.217" fill="#5CB615" fill-rule="nonzero"/></svg>
